X:1
T:Erlkonig
T:Erlkonig
T:String Quartet
T:Franz Schubert
T:Arr. Henry Miller
T:Public Domain 
T:Public Domain 
T:Public Domain 
T:Public Domain 
T:Public Domain 
T:Public Domain 
T:Public Domain 
T:Public Domain 
T:Public Domain 
T:Public Domain 
T:Public Domain 
T:Public Domain 
T:Public Domain 
T:Public Domain 
T:Public Domain 
T:Public Domain 
T:Public Domain 
T:Public Domain 
C:Franz Schubert
Z:Arr. Henry Miller
Z:Public Domain
%%score [ 1 2 3 4 ]
L:1/8
Q:1/4=160
M:4/4
K:Bb
V:1 treble nm="Violin I"
V:2 treble nm="Violin II"
V:3 alto nm="Viola"
V:4 bass nm="Violoncello"
V:1
"^Vivace" z8 |!f! (3GAB (3cde !wedge!d2 !wedge!B2 | !wedge!G2 z2 z4 | (3GGG (3GGG (3GGG (3GGG | %4
 (3GGG (3GGG (3GGG (3GGG | (3ccc (3ccc (3ccc (3^ccc | (3ddd (3ddd (3ddd (3ddd | G2 z2 z4 | %8
!f! (3GAB (3cde !wedge!d2 !wedge!B2 | G2 z2 z4 |!mf! (3GGG (3GGG (3GGG (3GGG | %11
 (3GGG (3GGG (3GGG (3GGG | (3ccc (3ccc (3ccc (3ccc | (3^ccc (3ccc (3ccc (3ccc | %14
!f! (3D^FG (3A=B^c d2 a2 | b4 a2 g2 | a6 a2 | b4 g4 | d'4 z4 | z4 z2 d'2 | d'6 g'2 | g'4 e'2 c'2 | %22
 f'6 a2 | b4 z2 b2 | e'6 a2 | b4 b4 | e'4 a3 a | b4 z2 b2 | d'6 a2 | b2 b2 z2 g2 | a4 ^f4 | g4 z4 | %32
!f! (3GAB (3cde !wedge!d2 !wedge!B2 | G2 z2 z4 |!mf! (3GGG (3GGG (3GGG (3GGG | %35
 (3GGG (3GGG (3GGG!f! d2 | g4 z2 d2 | g4 a3 a | b4 =b3 b | c'4 z4 | z4 z2 c'2 | d'6 g2 | e'6 c'2 | %43
 d'4 d'2 g2 | e'4 z4 | z4 z2 c'2 | _d'6 b2 | a2 f2 z2 c'2 | _d'6 (c'b) | c'4 z4 | z4 z2 c2 | %51
 e6 e2 | f6 c2 | e3 d d2 z2 | z8 | z8 | z4 z2 c'2 | d'6 b2 | f6 c'2 | d'6 b2 | f6 c'2 | d'6 d'2 | %62
 f'4 c'4 | c'2 (3(=bc')d' c'2 =e2 | f6 f2 | c'6 ^c'2 | d'4 b2 b=b | c'6 f2 | d'6 ud'ud' | %69
 g'3 f' (f'e')(d'c') | b4- bc'd'c' | b4 z2 ud'2 | e'4 ue'3 ue' | (e'd') d'2 z2 d'2 | e'4 e'3 e' | %75
 d'4 z2 a2 | b2 a2 b2 u=bub | c'4 ^c'3 c' | d'8 | z4 z2 ^f2 ||[K:C] b2 b2 z2 ^ff | a2 gg g4 | %82
 z2 g2 a2 a2 | b2 g2 d2 f^f | g4 z4 | z4 z2 g2 | g2 (ab) c'2 (c'^c') | d'2 g2 e'2 (d'c') | %88
 b2 e2 c'2 (aa) | b2 e2 c'2 (aa) | a2 (^ga) b2 (=gg) | a2 (dd) b2 z g | g2 (ab) c'2 (d'e') | %93
 f'2 (d'b) c'2 z g | g2 (ab) c'2 (d'e') | (g'f')(d'b) c'2 z2 | z4 z2 e'2 | f'4 f'3 f' | %98
 (f'e') e'2 z2 e'2 | f'4 f'3 f' | e'4 z2 b2 | c'2 b2 c'2 ^c'c' | d'4 ^d'4 | e'8 | z4 z2 ^g2 | %105
 ^c'4 z2 ^g2 | a4 z2 a2 | a4 a3 a | d'6 d'2 | d'2 (bg) e2 b2 | a4 a2 a2 | d4 z4 | %112
 (3ddd (3ddd (3ddd (3ddd | (3ddd (3ddd (3ddd (3ddd |!f! (3def (3ga_b !wedge!a2 !wedge!f2 | %115
 d2 z2 z2!f! d'2 | _e'3 _b b2 e'2 | d'2 (d'_e') f'2 (e'd') | _e'6 d'2 | ^c'4 uc'2 uc'2 | %120
 d'4 ud'3 u^g | a4 a3 a | d4 z2 f'2 | ^f'4 f'3 f' | (^f'=f') f'2 z2 f'2 | ^f'4 f'3 f' | f'4 z4 | %127
 f'4 ^f'3 f' | g'4 _e'3 e' | d'6 d'2 |[K:Bb] g4 z4 | z4 z2 d2 | d6 d2 | g2 g2 z2 g2 | g4 a3 a | %135
 b4 z2 b2 | b4 c'4 | d'2 d'2 z2 d'2 | d'4 g'3 d' | e'4 z4 | z8 | z4 z2 c'2 | c'6 _a2 | %143
 _d'3 b g2 b2 | _a2 z2 z4 | z2 z/"^Ad Lib." _a/a/b/ c'2 ba | %146
 g2 !fermata!z !fermata!^c d2[Q:1/4=96]"^Andante" [d^f] z | [dg]2 z2 z4 |] %148
V:2
 z8 |!f! (3G,A,B, (3CDE !wedge!D2 !wedge!B,2 | !wedge!G,2 z2 z4 | %3
!mf! (3G,G,G, (3G,G,G, (3G,G,G, (3G,G,G, | (3G,G,G, (3G,G,G, (3G,G,G, (3G,G,G, | %5
 (3AAA (3AAA (3AAA (3AAA | (3BBB (3BBB (3AAA (3AAA | G,2 z2 z4 | %8
 (3G,A,B, (3CDE !wedge!D2 !wedge!B,2 | G,2 z2 z4 | (3G,G,G, (3G,G,G, (3G,G,G, (3G,G,G, | %11
 (3G,G,G, (3G,G,G, (3G,G,G, (3G,G,G, |!mf!!mf! (3AAA (3AAA (3AAA (3AAA | (3BBB (3BBB (3BBB (3GGG | %14
 (3D^FG (3A=B^c!mf! (3ddd (3ddd | (3ddd (3ddd (3ddd (3ddd | (3D^FG (3A=B^c (3ddd (3ddd | %17
 (3ddd (3ddd (3ddd (3ddd | %18
 (3[A,^F][A,F][A,F] (3[A,F][A,F][A,F] (3[A,F][A,F][A,F] (3[A,F][A,F][A,F] | %19
 (3ddd (3ddd (3ddd (3ddd | %20
 (3[=B,G][B,G][B,G] (3[B,G][B,G][B,G] (3[B,G][B,G][B,G] (3[B,G][B,G][B,G] | %21
 (3GGG (3GGG (3GGG (3[Gc][Gc][Gc] | (3BBB (3BBB (3[FA][FA][FA] (3[FA][FA][FA] | %23
 (3FFF (3FFF (3FFF (3FFF | (3[_GA][GA][GA] (3[GA][GA][GA] (3[GA][GA][GA] (3[GA][GA][GA] | %25
 (3B,CD (3EF_G !wedge!F2 !wedge!B,2 | %26
!mf! (3[_GA][GA][GA] (3[GA][GA][GA] (3[GA][GA][GA] (3[GA][GA][GA] | %27
 (3[B,D][B,D][B,D] (3[B,D][B,D][B,D] (3[B,D][B,D][B,D] (3[B,D][B,D][B,D] | %28
 (3[_GA][GA][GA] (3[GA][GA][GA] (3[GA][GA][GA] (3[GA][GA][GA] | %29
 (3[B,G][B,G][B,G] (3[B,G][B,G][B,G] (3[B,G][B,G][B,G] (3[B,G][B,G][B,G] | %30
 (3[A,G][A,G][A,G] (3[A,G][A,G][A,G] (3[A,^F][A,F][A,F] (3[A,F][A,F][A,F] | %31
!f! (3GGG (3GGG (3GGG (3GGG | (3G,A,B, (3CDE !wedge!D2 !wedge!B,2 | G,2 z2 z4 | %34
!mf! (3G,G,G, (3G,G,G, (3G,G,G, (3G,G,G, | (3G,G,G, (3G,G,G, (3G,G,G, (3G,G,G, | z8 | %37
 z4"_cresc." (3AAA (3AAA | (3BBB (3BBB (3[=B,_A][B,A][B,A] (3[B,A][B,A][B,A] | %39
!f! (3CEF (3GA=B (3ccc (3ccc | %40
!mf! (3[G,E][G,E][G,E] (3[G,E][G,E][G,E] (3[G,E][G,E][G,E] (3[G,E][G,E][G,E] | %41
 (3[=B,_A][B,A][B,A] (3[B,A][B,A][B,A] (3[B,A][B,A][B,A] (3[B,G][B,G][B,G] | %42
 (3CEF (3GA=B (3ccc (3ccc | %43
 (3[=B,_A][B,A][B,A] (3[B,A][B,A][B,A] (3[B,A][B,A][B,A] (3[B,G][B,G][B,G] | %44
 (3GGG (3GGG (3GGG (3_GGG |!f! (3FAB (3cd=e (3fff (3fff | (3_ddd (3ddd (3ddd (3ddd | %47
 (3[CE][CE][CE] (3[CE][CE][CE] (3[CE][CE][CE] (3[CE][CE][CE] | (3_ddd (3ddd (3ddd (3ddd | %49
 (3FFF (3FFF (3FFF (3FFF | (3FFF (3FFF (3FFF (3FFF | (3FFF (3FFF (3FFF (3FFF | %52
 (3FFF (3FFF (3FFF (3FFF | (3FFF (3FFF (3FFF (3FFF | (3FFF (3FFF (3FFF (3FFF | %55
 (3EEE (3EEE (3EEE (3EEE | (3DDD (3DDD (3CCC (3CCC | (3FFF (3FFF (3FFF (3FFF | %58
 (3[FA][FA][FA] (3[FA][FA][FA] (3[FA][FA][FA] (3[FA][FA][FA] | (3FFF (3FFF (3FFF (3FFF | %60
 (3[FA][FA][FA] (3[FA][FA][FA] (3[FA][FA][FA] (3[FA][FA][FA] | (3FFF (3FFF (3FFF (3FFF | %62
 (3AAA (3AAA (3AAA (3AAA | %63
 (3[B,=E][B,E][B,E] (3[B,E][B,E][B,E] (3[B,E][B,E][B,E] (3[B,E][B,E][B,E] | %64
 (3CCC (3CCC (3CCC (3CCC | (3EEE (3EEE (3EEE (3EEE | (3FFF (3FFF (3FFF (3FFF | %67
 (3EEE (3EEE (3EEE (3EEE | (3FFF (3FFF (3FFF (3FFF | (3FFF (3FFF (3EEE (3EEE | %70
 (3DDD (3DDD (3[CE][CE][CE] (3[CE][CE][CE] | (3ddd (3ddd (3ddd!f! (3ddd | (3ddd (3ddd (3ddd (3ddd | %73
 (3ddd (3ddd (3ddd (3ddd | (3ddd (3ddd (3ddd (3ddd | (3ddd (3ddd!mf! (3ddd (3ddd | %76
 (3ddd (3ddd (3ddd (3ddd | (3ddd (3ddd (3ddd (3ddd | (3ddd (3ddd (3ddd (3ddd | %79
 (3ddd (3[G^c][Gc][Gc] (3[^F=B][FB][FB] (3[F^A][FA][FA] || %80
[K:C] (3[^FB][FB][FB] (3[FB][FB][FB] (3[FB][FB][FB] (3[FA][FA][FA] | %81
 (3[EG][EG][EG] (3[EG][EG][EG] (3[EG][EG][EG] (3[EG][EG][EG] | %82
 (3[EG][EG][EG] (3[EG][EG][EG] (3[EA][EA][EA] (3[EA][EA][EA] | %83
 (3[DG][DG][DG] (3[DG][DG][DG] (3[D^F][DF][DF] (3[DF][DF][DF] | %84
 (3[DG][DG][DG] (3[DG][DG][DG] (3[DG][DG][DG] (3[DG][DG][DG] | %85
 (3[FG][FG][FG] (3[FG][FG][FG] (3[FG][FG][FG] (3[FG][FG][FG] | (3G,CE (3GEC (3G,CE (3GEC | %87
 (3G,B,F (3GFB, (3G,CE (3GEC | (3B,DE (3^GED (3A,CE (3AEC | (3B,DE (3^GED (3A,CE (3AEC | %90
 (3A,CD (3^FDC (3G,B,D (3GDB, | (3A,CD (3^FDC (3G,B,D (3GDB, | (3G,B,F (3GFB, (3G,CE (3GEC | %93
 (3G,DF (3GFD (3G,CE (3GEC | (3GBf (3gfB (3Gce (3gec | (3Gdf (3gfd (3gee (3eee | %96
 (3eee (3eee (3eee (3eee | (3eee (3eee (3eee (3eee | (3eee (3eee (3eee (3eee | %99
 (3eee (3eee (3eee (3eee | (3eee (3eee (3eee (3eee | (3eee (3eee (3eee (3eee | %102
 (3eee (3eee (3eee (3eee | (3eee (3eee (3eee (3eee | %104
 (3eee (3[A^d][Ad][Ad] (3[^G^c][Gc][Gc] (3[G=c][Gc][Gc] | (3^ccc (3ccc (3ccc (3ccc | %106
 (3^ccc (3ccc (3ccc (3ccc | (3[A^c][Ac][Ac] (3[Ac][Ac][Ac] (3[Ac][Ac][Ac] (3[Ac][Ac][Ac] | %108
 (3ddd (3ddd (3ddd (3ddd | (3ddd (3ddd (3ddd (3ddd | (3ddd (3ddd (3^ccc (3ccc | %111
 (3ddd (3ddd (3ddd (3ddd |!mf!!mf! (3DDD (3DDD (3DDD (3DDD | (3DDD (3DDD (3DDD (3DDD | %114
!f! (3DEF (3GA_B !wedge!A2 !wedge!F2 | D2 z2 z4 | %116
 (3[_B_e][Be][Be] (3[Be][Be][Be] (3[Be][Be][Be] (3[Be][Be][Be] | %117
 (3[Bd][Bd][Bd] (3[Bd][Bd][Bd] (3[Bd][Bd][Bd] (3[Bd][Bd][Bd] | %118
 (3[_B_e][Be][Be] (3[Be][Be][Be] (3[Be][Be][Be] (3[Be][Be][Be] | %119
 (3[_B^c][Bc][Bc] (3[Bc][Bc][Bc] (3[Bc][Bc][Bc] (3[Bc][Bc][Bc] | %120
 (3[Bd][Bd][Bd] (3[Bd][Bd][Bd] (3[Bd][Bd][Bd] (3[Bd][Bd][Bd] | %121
 (3[Ad][Ad][Ad] (3[Ad][Ad][Ad] (3[A^c][Ac][Ac] (3[Ac][Ac][Ac] | (3dff (3fff (3fff (3fff | %123
 (3fff (3fff (3fff (3fff | (3fff (3fff (3fff (3fff | (3fff (3fff (3fff (3fff | %126
 (3fff (3fff (3fff (3fff | (3fff (3fff (3^fff (3fff | (3ggg (3ggg (3_eee (3eee | %129
 (3[_Bd][Bd][Bd] (3[Bd][Bd][Bd] (3[Bd][Bd][Bd] (3[Bd][Bd][Bd] |[K:Bb]!f! (3GGG (3GGG (3GGG (3GGG | %131
 (3GAB (3cde !wedge!d2 !wedge!B2 | (3GGG (3GGG (3GGG (3GGG |!f! (3GAB (3cde !wedge!d2 !wedge!B2 | %134
!mf! (3GGG (3GGG (3AAA (3AAA | (3[GB][GB][GB] (3[GB][GB][GB] (3[GB][GB][GB] (3[GB][GB][GB] | %136
 (3GGG (3GGG (3GGG (3GGG | (3DDD (3DDD (3DDD (3DDD | (3GGG (3GGG (3GGG (3GGG | %139
!f! (3cde (3fg_a !wedge!g2 !wedge!e2 | (3ccc (3ccc (3ccc (3ccc | (3ccc (3ccc (3ccc (3ccc | %142
 (3[_Ac][Ac][Ac] (3[Ac][Ac][Ac] (3[Ac][Ac][Ac] (3[Ac][Ac][Ac] | %143
 (3[GB][GB][GB] (3[GB][GB][GB] (3[GB][GB][GB] (3[GB][GB][GB] | %144
 (3_AA!>(!A"^rit." (3AAA (3AAA (3AAA!>)! |!mp! c4 !fermata!z4 | z!p! !fermata![GB]2 z z2 [CA] z | %147
 [DB]2 z2 z4 |] %148
V:3
!f! (3GGG (3GGG (3GGG (3GGG |!mf! (3GGG (3GGG (3GGG (3GGG | (3GGG (3GGG (3GGG (3GGG | %3
!mf! (3GAB (3cde !wedge!d2 !wedge!B2 | !wedge!G2 z2 z4 |!mf! (3GGG (3GGG (3GGG (3GGG | %6
 (3GGG (3GGG (3^FFF (3FFF | (3GGG (3GGG (3GGG (3GGG |!f! (3GGG (3GGG (3GGG (3GGG | %9
 (3GGG (3GGG (3GGG (3GGG |!mf!!f! (3GAB (3cde !wedge!d2 !wedge!B2 | !wedge!G2 z2 z4 | %12
 (3GGG (3GGG (3GGG (3GGG | (3GGG (3GGG (3GGG (3=EEE | %14
!f! (3[A,^F][A,F][A,F] (3[A,F][A,F][A,F] (3[A,F][A,F][A,F] (3[A,F][A,F][A,F] | %15
 (3[B,G][B,G][B,G] (3[B,G][B,G][B,G] (3[B,G][B,G][B,G] (3[B,G][B,G][B,G] | %16
 (3[A,^F][A,F][A,F] (3[A,F][A,F][A,F] (3[A,F][A,F][A,F] (3[A,F][A,F][A,F] | %17
 (3[B,G][B,G][B,G] (3[B,G][B,G][B,G] (3[B,G][B,G][B,G] (3[B,G][B,G][B,G] | %18
 (3D^FG (3A=B^c (3ddd (3ddd | %19
 (3[A,^F][A,F][A,F] (3[A,F][A,F][A,F] (3[A,F][A,F][A,F] (3[A,F][A,F][A,F] | %20
 (3F[FF]F (3F[FF]F (3F[FF]F (3F[FF]F | (3=EEE (3EEE (3EEE (3EEE | (3FFF (3FFF (3EEE (3EEE | %23
 (3[B,D][B,D][B,D] (3[B,D][B,D][B,D] (3[B,D][B,D][B,D] (3[B,D][B,D][B,D] | %24
 (3EEE (3EEE (3EEE (3EEE | %25
!f! (3[B,D][B,D][B,D] (3[B,D][B,D][B,D] (3[B,D][B,D][B,D] (3[B,D][B,D][B,D] | %26
 (3EEE (3EEE (3EEE (3EEE |!f! (3B,CD (3EF_G !wedge!F2 !wedge!B,2 | (3DDD (3DDD (3DDD (3DDD | %29
 (3DDD (3DDD (3EEE (3EEE | (3EEE (3EEE (3DDD (3DDD |!f! (3G,G,G, (3G,G,G, (3G,G,G, (3G,G,G, | %32
!mf! (3GGG (3GGG (3GGG (3GGG | (3GGG (3GGG (3GGG (3GGG |!f! (3GAB (3cde !wedge!d2 !wedge!B2 | %35
 G2 z2!mf! (3GGG (3GGG | (3GGG (3GGG (3GGG (3GGG |"_cresc." (3GGG (3GGG (3GGG (3GGG | %38
 (3GGG (3GGG (3FFF (3FFF | %39
!f! (3[G,E][G,E][G,E] (3[G,E][G,E][G,E] (3[G,E][G,E][G,E] (3[G,E][G,E][G,E] | %40
 (3CEF (3GA=B (3ccc (3ccc | (3[CF][CF][CF] (3[CF][CF][CF] (3[CF][CF][CF] (3[CF][CF][CF] | %42
!f! (3[G,E][G,E][G,E] (3[G,E][G,E]!mf![G,E] (3[G,E][G,E][G,E] (3[G,E][G,E][G,E] | %43
 (3[CF][CF][CF] (3[CF][CF][CF] (3[CF][CF][CF] (3[CF][CF][CF] | %44
 (3[CE][CE][CE] (3[CE][CE][CE] (3[CE][CE][CE] (3[CE][CE][CE] | %45
 (3[CE][CE][CE] (3[CE][CE][CE]!mf! (3[CE][CE][CE] (3[CE][CE][CE] | %46
 (3[GB][GB][GB] (3[GB][GB][GB] (3[GB][GB][GB] (3[GB][GB][GB] | (3FAB (3cd=e!f!!mf! (3fff (3fff | %48
 (3[GB][GB][GB] (3[GB][GB][GB] (3[GB][GB][GB] (3[GB][GB][GB] | %49
 (3[Ac][Ac][Ac] (3[Ac][Ac][Ac] (3[Ac][Ac][Ac] (3[Ac][Ac][Ac] | (3FFF (3FFF (3FFF (3FFF | %51
 (3FFF (3FFF (3FFF (3FFF | (3FFF (3FFF (3FFF (3FFF | (3DDD (3DDD (3DDD (3DDD | %54
 (3DDD (3DDD (3DDD (3DDD | %55
 (3[G,C][G,C][G,C] (3[G,C][G,C][G,C] (3[G,C][G,C][G,C] (3[G,C][G,C][G,C] | %56
 (3[B,F][B,F][B,F] (3[B,F][B,F][B,F] (3[A,F][A,F][A,F] (3[A,F][A,F][A,F] | %57
 (3DDD (3DDD (3DDD (3DDD | (3EEE (3EEE (3EEE (3EEE | (3DDD (3DDD (3DDD (3DDD | %60
 (3EEE (3EEE (3EEE (3EEE | (3DDD (3DDD (3DDD (3DDD | (3FFF (3FFF (3FFF (3FFF | %63
 (3G,G,G, (3G,G,G, (3G,G,G, (3G,G,G, | (3A,A,A, (3A,A,A, (3A,A,A, (3A,A,A, | %65
 (3A,A,A, (3A,A,A, (3A,A,A, (3A,A,A, | (3B,B,B, (3B,B,B, (3B,B,B, (3B,B,B, | %67
 (3A,A,A, (3A,A,A, (3A,A,A, (3A,A,A, | (3DDD (3DDD (3DDD (3DDD | %69
 (3[=B,D][B,D][B,D] (3[B,D][B,D][B,D] (3G,G,G, (3G,G,G, | (3B,B,B, (3B,B,B, (3A,A,A, (3A,A,A, | %71
 (3DDD (3DDD (3DDD (3DDD | (3DDD (3DDD (3DDD (3DDD | (3DDD (3DDD (3DDD (3DDD | %74
 (3DDD (3DDD (3DDD (3DDD | (3DDD (3DDD (3DDD (3DDD | (3DDD (3DDD (3DDD (3DDD | %77
 (3DDD (3DDD (3DDD (3DDD | (3DDD (3DDD (3DDD (3DDD | (3DDD (3=EEE (3DDD (3^CCC || %80
[K:C] (3DDD (3DDD (3DDD (3^DDD | (3B,B,B, (3B,B,B, (3B,B,B, (3B,B,B, | %82
 (3B,B,B, (3B,B,B, (3CCC (3CCC | (3B,B,B, (3B,B,B, (3CCC (3CCC | %84
 (3B,B,B, (3B,B,B, (3B,B,B, (3B,B,B, | (3B,B,B, (3B,B,B, (3CCC (3DDD | G, z G, z G, z G, z | %87
 G, z G, z G, z G, z | B, z B, z C z C z | B, z B, z C z C z | A, z A, z B, z B, z | %91
 A, z A, z B, z B, z | G2 z G G2 z G | G2 z G c2 z G | G2 z G G2 z G | G2 z A (3EEE (3EEE | %96
 (3EEE (3EEE (3EEE (3EEE | (3EEE (3EEE (3EEE (3EEE | (3EEE (3EEE (3EEE (3EEE | %99
 (3EEE (3EEE (3EEE (3EEE | (3EEE (3EEE (3EEE (3EEE | (3EEE (3EEE (3EEE (3EEE | %102
 (3EEE (3EEE (3EEE (3EEE | (3EEE (3EEE (3EEE (3EEE | (3EEE (3^FFF (3EEE (3^DDD | %105
 (3^CCC (3CCC (3CCC (3CCC | (3^CCC (3CCC (3CCC (3CCC | %107
 (3[EG][EG][EG] (3[EG][EG][EG] (3[EG][EG][EG] (3[EG][EG][EG] | %108
 (3[FA][FA][FA] (3[FA][FA][FA] (3[FA][FA][FA] (3[FA][FA][FA] | %109
 (3[E_B][EB][EB] (3[EB][EB][EB] (3[EB][EB][EB] (3[EB][EB][EB] | %110
 (3[FA][FA][FA] (3[FA][FA][FA] (3[EA][EA][EA] (3[EA][EA][EA] |!f!!f! (3[FA]DD (3DDD (3DDD (3DDD | %112
 (3def (3ga_b !wedge!a2 !wedge!f2 | d2 z2 z4 | (3ddd (3ddd (3ddd (3ddd | (3ddd (3ddd (3ddd (3ddd | %116
 (3GGG (3GGG (3GGG (3GGG | (3[F_A][FA][FA] (3[FA][FA][FA] (3[FA][FA][FA] (3[FA][FA][FA] | %118
 (3GGG (3GGG (3GGG (3GGG | (3EEE (3EEE (3EEE (3EEE | (3FFF (3FFF (3FFF (3FFF | %121
 (3FFF (3FFF (3EEE (3EEE | (3[FA]FF (3FFF (3FFF (3FFF | (3FFF (3FFF (3FFF (3FFF | %124
 (3FFF (3FFF (3FFF (3FFF | (3FFF (3FFF (3FFF (3FFF | (3FFF (3FFF (3FFF (3FFF | %127
 (3FFF (3FFF (3^FFF (3FFF | (3GGG (3GGG (3[GA][GA][GA] (3[GA][GA][GA] | (3GGG (3GGG (3GGG (3GGG | %130
[K:Bb]!f! (3GGG (3GGG (3GGG (3GGG | (3G,A,B, (3CDE !wedge!D2 !wedge!B,2 | %132
 (3G,G,G, (3G,G,G, (3G,G,G, (3G,G,G, | (3G,G,G, (3G,G,G, (3G,G,G, (3G,G,G, | %134
 (3GGG (3GGG (3[GA][GA][GA] (3[GA][GA][GA] |!f! (3GAB (3cde !wedge!d2 !wedge!B2 | %136
!mf! (3[GB][GB][GB] (3[GB][GB][GB] (3[Ac][Ac][Ac] (3[Ac][Ac][Ac] | %137
 (3[Bd][Bd][Bd] (3[Bd][Bd][Bd] (3[Bd][Bd][Bd] (3[Bd][Bd][Bd] | %138
 (3[=Bd][Bd][Bd] (3[Bd][Bd][Bd] (3[Bd][Bd][Bd] (3[Bd][Bd][Bd] | (3ccc (3ccc (3ccc (3ccc | %140
!mf! (3CCC (3CCC (3CCC (3CCC | (3CCC (3CCC (3CCC (3CCC | %142
 (3[CE][CE][CE] (3[CE][CE][CE] (3[CE][CE][CE] (3[CE][CE][CE] | %143
 (3[_D=E][DE][DE] (3[DE][DE][DE] (3[DE][DE][DE] (3[DE][DE][DE] | %144
 (3[CE]!>(![CE][CE]"^rit." (3[CE][CE][CE] (3[CE][CE][CE] (3[CE][CE][CE]!>)! |!mp! [E_A]4 z4 | %146
 z !fermata![^C=E]2 z z2 [=C^F] z | [B,G]2 z2 z4 |] %148
V:4
!f! (3G,,G,,G,, (3G,,G,,G,, (3G,,G,,G,, (3G,,G,,G,, | %1
!mf! (3G,,G,,G,, (3G,,G,,G,, (3G,,G,,G,, (3G,,G,,G,, | %2
 (3G,,G,,G,, (3G,,G,,G,, (3G,,G,,G,, (3G,,G,,G,, | %3
!f!!f! (3G,,A,,B,, (3C,D,E, !wedge!D,2 !wedge!B,,2 | !wedge!G,,2 z2 z4 | %5
!mf! (3A,,A,,A,, (3A,,A,,A,, (3A,,A,,A,, (3A,,A,,A,, | %6
 (3B,,B,,B,, (3B,,B,,B,, (3A,,A,,A,, (3A,,A,,A,, | %7
 (3G,,G,,G,, (3G,,G,,G,, (3G,,G,,G,, (3G,,G,,G,, | %8
 (3G,,G,,G,, (3G,,G,,G,, (3G,,G,,G,, (3G,,G,,G,, | %9
 (3G,,G,,G,, (3G,,G,,G,, (3G,,G,,G,, (3G,,G,,G,, |!f! (3G,,A,,B,, (3C,D,E, !wedge!D,2 !wedge!B,,2 | %11
 !wedge!G,,2 z2 z4 |!mf!!mf! (3A,,A,,A,, (3A,,A,,A,, (3A,,A,,A,, (3A,,A,,A,, | %13
 (3B,,B,,B,, (3B,,B,,B,, (3B,,B,,B,, (3B,,B,,B,, | (3D,D,D, (3D,D,D, (3D,D,D, (3D,D,D, | %15
 (3D,D,D, (3D,D,D, (3D,D,D, (3D,D,D, | (3D,D,D, (3D,D,D, (3D,D,D, (3D,D,D, | %17
 (3D,D,D, (3D,D,D, (3D,D,D, (3D,D,D, | (3D,D,D, (3D,D,D, (3D,D,D, (3D,D,D, | %19
 (3D,D,D, (3D,D,D, (3D,D,D, (3D,D,D, | (3D,D,D, (3D,D,D, (3D,D,D, (3D,D,D, | %21
 (3C,C,C, (3C,C,C, (3C,C,C, (3C,C,C, | (3D,D,D, (3D,D,D, (3C,C,C, (3C,C,C, | %23
!f! (3B,,C,D, (3E,F,_G, !wedge!F,2 !wedge!B,,2 |!mf! (3C,C,C, (3C,C,C, (3C,C,C, (3C,C,C, | %25
 (3F,F,F, (3F,F,F, (3F,F,F, (3F,F,F, | (3C,C,C, (3C,C,C, (3C,C,C, (3C,C,C, | %27
 (3F,F,F, (3F,F,F, (3F,F,F, (3F,F,F, |!mf! (3C,C,C, (3C,C,C, (3C,C,C, (3C,C,C, | %29
 !wedge!G,2 z2 !wedge!E,2 z2 | !wedge!C,2 z2 !wedge!D,2 z2 |!f! G,,2 z2 z4 | %32
!mf! (3G,,G,,G,, (3G,,G,,G,, (3G,,G,,G,, (3G,,G,,G,, | %33
 (3G,,G,,G,, (3G,,G,,G,, (3G,,G,,G,, (3G,,G,,G,, |!f! (3G,,A,,B,, (3C,D,E, !wedge!D,2 !wedge!B,,2 | %35
 G,,2 z2 z4 |!mf! (3G,,G,,G,, (3G,,G,,G,, (3G,,G,,G,, (3G,,G,,G,, | %37
"_cresc." (3G,,G,,G,, (3G,,G,,G,, (3A,,A,,A,, (3A,,A,,A,, | %38
 (3B,,B,,B,, (3B,,B,,B,, (3[G,,D,][G,,D,][G,,D,] (3[G,,D,][G,,D,][G,,D,] | %39
!f! (3C,C,C, (3C,C,C, (3C,C,C, (3C,C,!mf!C, |!f! (3C,C,C, (3C,C,C,!mf! (3C,C,C, (3C,C,C, | %41
 (3D,D,D, (3D,D,D, (3D,D,D, (3D,D,D, | (3C,C,C, (3C,C,C, (3C,C,C, (3C,C,C, | %43
 (3D,D,D, (3D,D,D, (3D,D,D, (3D,D,D, |!f! (3C,E,F, (3G,A,=B,!mf! (3CCC (3CCC | %45
 (3[F,A,][F,A,][F,A,] (3[F,A,][F,A,][F,A,] (3[F,A,][F,A,][F,A,] (3[F,A,][F,A,][F,A,] | %46
 (3=E,E,E, (3E,E,E, (3E,E,E, (3E,E,E, | %47
 (3[F,A,][F,A,][F,A,] (3[F,A,][F,A,][F,A,] (3[F,A,][F,A,][F,A,] (3[F,A,][F,A,][F,A,] | %48
 (3=E,E,E, (3E,E,E, (3E,E,E, (3E,E,E, |!f! (3F,A,B, (3CD=E!mf! (3FFF (3FFF | z8 | z8 | z8 | %53
 (3B,,B,,B,, (3B,,B,,B,, (3B,,B,,B,, (3B,,B,,B,, | z2 .B,2 .F,2 .D,2 | .E,2 z2 .C,2 z2 | %56
 .F,2 z2 .F,2 z2 | (3B,,B,,B,, (3B,,B,,B,, (3B,,B,,B,, (3B,,B,,B,, | %58
 (3B,,B,,B,, (3B,,B,,B,, (3B,,B,,B,, (3B,,B,,B,, | %59
 (3B,,B,,B,, (3B,,B,,B,, (3B,,B,,B,, (3B,,B,,B,, | %60
 (3B,,B,,B,, (3B,,B,,B,, (3B,,B,,B,, (3B,,B,,B,, | %61
 (3B,,B,,B,, (3B,,B,,B,, (3B,,B,,B,, (3B,,B,,B,, | (3C,C,C, (3C,C,C, (3C,C,C, (3C,C,C, | %63
 (3C,C,C, (3C,C,C, (3C,C,C, (3C,C,C, | (3F,F,F, (3F,F,F, (3F,F,F, (3F,F,F, | %65
 (3F,F,F, (3F,F,F, (3F,F,F, (3F,F,F, | (3D,D,D, (3D,D,D, (3D,D,D, (3D,D,D, | %67
 (3F,F,F, (3F,F,F, (3F,F,F, (3F,F,F, | (3B,,B,,B,, (3B,,B,,B,, (3B,,B,,B,, (3B,,B,,B,, | %69
 (3G,,G,,G,, (3G,,G,,G,, (3C,C,C, (3C,C,C, | (3F,F,F, (3F,F,F, (3F,F,F, (3F,F,F, | %71
 [B,,F,]2 z2 z2!f!!f! u=B,,2 | vC,4 A,,4 | ^F,4 z2 u=B,,2 | vC,4 A,,4 | ^F,4!mf! z2!mf! uF,2 | %76
 G,2 ^F,2 G,2 ^G,2 | A,,4 ^A,,4 | =B,,8- | B,,2 =E,2 ^F,2 F,2 ||[K:C] B,,8 | E,8- | %82
 E,2 !wedge!E,2 !wedge!uC,2 !wedge!uC,2 | .D,2 z2 .D,2 z2 | G,,4 uE,2 uB,,2 | G,,4 uA,,2 uB,,2 | %86
 C, z C, z C, z C, z | C, z C, z C, z C, z | E, z E, z A,, z A,, z | E, z E, z A,, z A,, z | %90
 D, z D, z G,, z G,, z | D, z D, z G,, z G,, z | G,,2 z G,, G,,2 z G,, | G,,2 z G,, C,2 z G,, | %94
 G,,2 z G,, G,,2 z G,, | G,,2 z G,, C,2 z2 | z4 z2 ^C,2 | D,4 B,,4 | ^F,4 z2 ^C,2 | D,4 B,,4 | %100
 ^G,4 z2 ^G,,2 | A,,2 ^G,,2 A,,2 ^A,,2 | B,,4 C,4 | ^C,8- | %104
 C,2 !wedge!^F,2 !wedge!^G,2 !wedge!G,2 | z8 | z8 | %107
 (3G,,G,,G,, (3G,,G,,G,, (3G,,G,,G,, (3G,,G,,G,, | (3D,D,D, (3D,D,D, z4 | %109
 (3G,,G,,G,, (3G,,G,,G,, (3G,,G,,G,, (3G,,G,,G,, | A,,4 A,,4 |!f! D,2 z2 z4 | %112
 (3D,E,F, (3G,A,_B, !wedge!A,2 !wedge!F,2 | D,2 z2 z4 | %114
!mf!!mf! (3D,D,D, (3D,D,D, (3D,D,D, (3D,D,D, | (3D,D,D, (3D,D,D, (3D,D,D, (3D,D,D, | %116
 (3_E,E,E, (3E,E,E, (3E,E,E, (3E,E,E, | (3_E,E,E, (3E,E,E, (3E,E,E, (3E,E,E, | %118
 (3_E,E,E, (3E,E,E, (3E,E,E, (3E,E,E, | (3G,,G,,G,, (3G,,G,,G,, (3G,,G,,G,, (3G,,G,,G,, | %120
 (3^G,,G,,G,, (3G,,G,,G,, (3G,,G,,G,, (3G,,G,,G,, | A,,4 A,,4 | D,4 z2 D,2 | _E,4 C,4 | %124
 A,,4 z2 D,2 | _E,4 C,4 | A,,4 z4 | [B,,D,]4 [C,D,]4 | [_B,,D,]4 C,4 | D,4 D,4 | %130
[K:Bb]!f! (3G,,G,,G,, (3G,,G,,G,, (3G,,G,,G,, (3G,,G,,G,, | %131
!mf! (3G,,G,,G,, (3G,,G,,G,, (3G,,G,,G,, (3G,,G,,G,, | %132
 (3G,,G,,G,, (3G,,G,,G,, (3G,,G,,G,, (3G,,G,,G,, |!f! (3G,,A,,B,, (3C,D,E, !wedge!D,2 !wedge!B,,2 | %134
!mf! (3G,,G,,G,, (3G,,G,,G,, (3G,,G,,G,, (3G,,G,,G,, | %135
 (3B,,B,,B,, (3B,,B,,B,, (3B,,B,,B,, (3B,,B,,B,, | (3B,,B,,B,, (3B,,B,,B,, (3C,C,C, (3C,C,C, | %137
!f! (3G,A,B, (3CDE !wedge!D2 !wedge!B,2 |!mf! (3F,F,F, (3F,F,F, (3F,F,F, (3F,F,F, | %139
 (3[E,G,][E,G,][E,G,] (3[E,G,][E,G,][E,G,] (3[E,G,][E,G,][E,G,] (3[E,G,][E,G,][E,G,] | %140
 C,4 u_D,2 u=D,2 | E,2 =E,2 F,2 G,2 | (3_A,,A,,A,, (3A,,A,,A,, (3A,,A,,A,, (3A,,A,,A,, | %143
 (3_A,,A,,A,, (3A,,A,,A,, (3A,,A,,A,, (3A,,A,,A,, | %144
 (3_A,,A,,!>(!A,,"^rit." (3A,,A,,A,, (3A,,A,,A,, (3A,,A,,A,,!>)! |!mp! [_A,,C,]4 !fermata!z4 | %146
 z!p!!p! !fermata!B,,2 z z2 [A,,D,] z | [G,,D,]2 z2 z4 |] %148

